public/icons/icongrow1.svg

<svg width="69" height="68" viewBox="0 0 69 68" fill="none" xmlns="http://www.w3.org/2000/svg">
<path d="M60.3401 52.6994H57.2801V10.8794C57.2801 10.6089 57.1727 10.3494 56.9814 10.1581C56.7901 9.96684 56.5307 9.85938 56.2601 9.85938H46.7401C46.4696 9.85938 46.2102 9.96684 46.0189 10.1581C45.8276 10.3494 45.7201 10.6089 45.7201 10.8794V52.6994H40.2801V26.5194C40.2801 26.2489 40.1727 25.9894 39.9814 25.7981C39.7901 25.6068 39.5307 25.4994 39.2601 25.4994H29.7401C29.4696 25.4994 29.2102 25.6068 29.0189 25.7981C28.8276 25.9894 28.7201 26.2489 28.7201 26.5194V52.6994H23.2801V41.4794C23.2801 41.2089 23.1727 40.9494 22.9814 40.7581C22.7901 40.5668 22.5307 40.4594 22.2601 40.4594H12.7401C12.4696 40.4594 12.2102 40.5668 12.0189 40.7581C11.8276 40.9494 11.7201 41.2089 11.7201 41.4794V52.6994H8.66014C8.38962 52.6994 8.13017 52.8068 7.93889 52.9981C7.7476 53.1894 7.64014 53.4489 7.64014 53.7194C7.64014 53.9899 7.7476 54.2493 7.93889 54.4406C8.13017 54.6319 8.38962 54.7394 8.66014 54.7394H60.3401C60.6107 54.7394 60.8701 54.6319 61.0614 54.4406C61.2527 54.2493 61.3601 53.9899 61.3601 53.7194C61.3601 53.4489 61.2527 53.1894 61.0614 52.9981C60.8701 52.8068 60.6107 52.6994 60.3401 52.6994ZM47.7601 11.8994H55.2401V52.6994H47.7601V11.8994ZM30.7601 27.5394H38.2401V52.6994H30.7601V27.5394ZM13.7601 42.4994H21.2401V52.6994H13.7601V42.4994Z" fill="#3A67B1"/>
<path d="M8.5191 36.96C8.78953 36.9598 9.0488 36.8521 9.2399 36.6608L37.4191 8.4816V12.82C37.4191 13.0905 37.5266 13.35 37.7179 13.5412C37.9091 13.7325 38.1686 13.84 38.4391 13.84C38.7096 13.84 38.9691 13.7325 39.1604 13.5412C39.3516 13.35 39.4591 13.0905 39.4591 12.82V6.02C39.4581 5.89172 39.4327 5.76481 39.3843 5.646C39.333 5.5207 39.2573 5.40687 39.1616 5.31114C39.0658 5.2154 38.952 5.13969 38.8267 5.0884C38.7046 5.03363 38.5729 5.00358 38.4391 5H31.6391C31.3686 5 31.1091 5.10746 30.9179 5.29875C30.7266 5.49004 30.6191 5.74948 30.6191 6.02C30.6191 6.29052 30.7266 6.54996 30.9179 6.74125C31.1091 6.93254 31.3686 7.04 31.6391 7.04H35.9775L7.7983 35.2192C7.65583 35.3618 7.55883 35.5435 7.51955 35.7413C7.48027 35.939 7.50047 36.1439 7.57759 36.3302C7.65472 36.5165 7.78532 36.6757 7.95289 36.7878C8.12046 36.8999 8.3175 36.9598 8.5191 36.96Z" fill="#3A67B1"/>
</svg>

<svg xmlns="http://www.w3.org/2000/svg" fill="none" viewBox="0 0 69 68">
  <path fill="#3A67B1" d="M60.34 52.7h-3.06V10.88a1.02 1.02 0 0 0-1.02-1.02h-9.52a1.02 1.02 0 0 0-1.02 1.02V52.7h-5.44V26.52a1.02 1.02 0 0 0-1.02-1.02h-9.52a1.02 1.02 0 0 0-1.02 1.02V52.7h-5.44V41.48a1.02 1.02 0 0 0-1.02-1.02h-9.52a1.02 1.02 0 0 0-1.02 1.02V52.7H8.66a1.02 1.02 0 1 0 0 2.04h51.68a1.02 1.02 0 1 0 0-2.04ZM47.76 11.9h7.48v40.8h-7.48V11.9Zm-17 15.64h7.48V52.7h-7.48V27.54Zm-17 14.96h7.48v10.2h-7.48V42.5ZM8.52 36.96c.27 0 .529-.108.72-.3L37.42 8.483v4.338a1.02 1.02 0 1 0 2.04 0v-6.8a1.012 1.012 0 0 0-.633-.932A1.013 1.013 0 0 0 38.439 5h-6.8a1.02 1.02 0 1 0 0 2.04h4.338L7.799 35.22a1.02 1.02 0 0 0 .721 1.74Z"/>
</svg>
